X: 398
T: Mopai diao
%%abc-version 2.0
%%abcx-abcm2ps-target-version 5.9.1 (29 Sep 2008)
%%abc-creator hum2abc beta
%%abcx-conversion-date 2013/10/02 07:52:30
%%abc-edited-by Helmut Schaffrath
%%humdrum-veritas 848449733
%%humdrum-veritas-data 559507495
%%continueall 1
%%barnumbers 0
L: 1/8
M: 2/4
K: C
e d c d [I:setbarnb 1]| 
e g e d | 
cc2e | 
d B A G | 
AA2c | 
B A G A | 
E4 | 
A GA2 | 
zc2d | 
e B A G | 
AE2G | 
AA2c | 
B A G A | 
c B A G | 
E4 | 
e d c e | 
d B A G | 
AA2c | 
B A G A | 
c B A G | 
G4 |]  



